X:1442
T:Menuett
C:Georg Friedrich H\"andel
O:Germany
R:Minuet
Z:Transcribed by Frank Nordberg - http://www.musicaviva.com
F:http://abc.musicaviva.com/tunes/handel-georg-friedrich/handel-menuett-01.abc
V:1 Program 1 6 %Harpsichord
V:2 Program 1 6 bass %Harpsichord
M:3/4
L:1/8
K:Em
V:1
B2e2^d2|e2=dcBA|GcBAG2|F2A2D2|d2cBAG|
V:2
E,,2E,2F,2|G,4^D,2|E,2A,,2C,2|D,4C,2|B,,2C,2D,2|
%
V:1
g2fedc|B2d2F2|"^Fine"G6::B2e2^c2|d2d=cBA|
V:2
E,4F,2|G,2B,,2D,2|G,6::G,2E,2A,2|F,2D,2F,2|
%
V:1
B2A2g2|f2fedc|B2e2^d2|e2BAGF|G2B2F2|"^D.C. al fine"E6:|
V:2
G,2F,2E,2|D,2E,2F,2|G,2G,,2F,,2|G,,4B,,2|E,2G,,2B,,2|E,,6:|
W:
W:
W:  From Musica Viva - http://www.musicaviva.com
W:  the Internet center for free sheet music downloads.
